public/assets/img/app/svg/tear.svg

<svg width="48" height="48" viewBox="0 0 48 48" fill="none" xmlns="http://www.w3.org/2000/svg">
<path d="M48 24C48 37.2547 37.2547 48 24 48C10.7453 48 0 37.2547 0 24C0 10.7453 10.7453 0 24 0C37.2547 0 48 10.7453 48 24Z" fill="#FFCC4D"/>
<path d="M29.3335 35.9999C29.3335 39.6839 26.9455 39.9999 24.0001 39.9999C21.0535 39.9999 18.6668 39.6839 18.6668 35.9999C18.6668 32.3186 21.0535 27.9999 24.0001 27.9999C26.9455 27.9999 29.3335 32.3186 29.3335 35.9999ZM40.0001 19.9999C39.8348 19.9999 39.6668 19.9693 39.5055 19.9039C32.5335 17.1159 29.6761 12.9159 29.5575 12.7386C29.1481 12.1253 29.3135 11.2973 29.9268 10.8893C30.5388 10.4813 31.3628 10.6439 31.7735 11.2546C31.7988 11.2906 34.3468 14.9679 40.4948 17.4266C41.1788 17.7013 41.5121 18.4759 41.2388 19.1599C41.0295 19.6826 40.5281 19.9999 40.0001 19.9999ZM8.00015 19.9999C7.47081 19.9999 6.97081 19.6826 6.76148 19.1613C6.48815 18.4773 6.82015 17.7013 7.50415 17.4279C13.6535 14.9693 16.2015 11.2919 16.2268 11.2559C16.6375 10.6479 17.4655 10.4866 18.0761 10.8959C18.6855 11.3066 18.8508 12.1293 18.4428 12.7399C18.3241 12.9173 15.4668 17.1173 8.49615 19.9053C8.33348 19.9693 8.16548 19.9999 8.00015 19.9999Z" fill="#664500"/>
<path d="M32 21.3333H37.3333V46.6666L32 46.6053V21.3333ZM10.6666 46.6666L16 46.6053V21.3333H10.6666V46.6666Z" fill="#5DADEC"/>
<path d="M19.9987 24.0001C19.7987 24.0001 19.5947 23.9548 19.404 23.8601C14.7214 21.5188 9.97737 23.8361 9.9307 23.8601C9.2707 24.1921 8.4707 23.9214 8.14137 23.2641C7.81204 22.6054 8.0787 21.8041 8.73737 21.4748C8.98004 21.3548 14.7347 18.5454 20.5974 21.4748C21.256 21.8041 21.5227 22.6054 21.1934 23.2641C20.9587 23.7308 20.488 24.0001 19.9987 24.0001ZM38.6654 24.0001C38.4654 24.0001 38.2614 23.9548 38.0707 23.8601C33.3867 21.5188 28.644 23.8361 28.5974 23.8601C27.9387 24.1908 27.1387 23.9228 26.808 23.2641C26.4787 22.6054 26.7454 21.8041 27.404 21.4748C27.6467 21.3548 33.4054 18.5468 39.264 21.4748C39.9227 21.8041 40.1894 22.6054 39.86 23.2641C39.6254 23.7308 39.1547 24.0001 38.6654 24.0001Z" fill="#664500"/>
<path d="M24 47.9998C37.2548 47.9998 48 46.8059 48 45.3332C48 43.8604 37.2548 42.6665 24 42.6665C10.7452 42.6665 0 43.8604 0 45.3332C0 46.8059 10.7452 47.9998 24 47.9998Z" fill="#5DADEC"/>
<path d="M24.0001 38.6666C26.2092 38.6666 28.0001 37.4727 28.0001 35.9999C28.0001 34.5272 26.2092 33.3333 24.0001 33.3333C21.7909 33.3333 20.0001 34.5272 20.0001 35.9999C20.0001 37.4727 21.7909 38.6666 24.0001 38.6666Z" fill="#E75A70"/>
</svg>

<svg xmlns="http://www.w3.org/2000/svg" width="48" height="48" fill="none"><path d="M48 24c0 13.255-10.745 24-24 24S0 37.255 0 24 10.745 0 24 0s24 10.745 24 24z" fill="#ffcc4d"/><path d="M29.334 36c0 3.684-2.388 4-5.333 4s-5.333-.316-5.333-4 2.387-8 5.333-8 5.333 4.32 5.333 8zM40 20c-.165 0-.333-.03-.495-.096-6.972-2.788-9.83-6.988-9.948-7.165a1.33 1.33 0 0 1 .369-1.849c.612-.408 1.436-.245 1.847.365.025.036 2.573 3.713 8.72 6.172.684.275 1.017 1.05.744 1.733-.21.523-.71.84-1.24.84zM8 20c-.53 0-1.03-.317-1.24-.84-.273-.684.06-1.46.743-1.733 6.15-2.46 8.697-6.136 8.723-6.172.41-.608 1.24-.77 1.85-.36a1.33 1.33 0 0 1 .367 1.844c-.12.177-2.976 4.377-9.947 7.165-.163.064-.33.095-.496.095z" fill="#664500"/><path d="M32 21.333h5.333v25.333L32 46.605V21.333zM10.667 46.667l5.333-.06V21.333h-5.333v25.333z" fill="#5dadec"/><path d="M20 24c-.2 0-.404-.045-.595-.14-4.683-2.34-9.427-.024-9.473 0-.66.332-1.46.06-1.79-.596s-.063-1.46.596-1.79c.243-.12 5.997-2.93 11.86 0 .66.33.925 1.13.596 1.79-.235.467-.705.736-1.195.736zm18.667 0c-.2 0-.404-.045-.595-.14-4.684-2.34-9.427-.024-9.473 0-.66.33-1.46.063-1.79-.596s-.063-1.46.596-1.79c.243-.12 6-2.928 11.86 0 .66.33.925 1.13.596 1.79-.235.467-.705.736-1.195.736z" fill="#664500"/><path d="M24 48c13.255 0 24-1.194 24-2.667s-10.745-2.667-24-2.667S0 43.86 0 45.333 10.745 48 24 48z" fill="#5dadec"/><path d="M24 38.667c2.21 0 4-1.194 4-2.667s-1.79-2.667-4-2.667-4 1.194-4 2.667 1.79 2.667 4 2.667z" fill="#e75a70"/></svg>
